X:2652
T:Carey's
M:4/4
L:1/8
S:Fintan Vallely
R:reel
K:ADor
~A2GB ABdB|cBcG EF~G2|~A2GB ABdB|cBce edd2|
~A2GB ABdB|cBcG EF~G2|~A3d ~B3d|cBce edd2||
ed~d2 ed^cd|ed~d2 eaag|eGdG edcB|ABce edd2|
ed~d2 ed~d2|ed~d2 e2ag|fged cABG|ABcd e4||


